X:48
T:Tea Pot THO1.048, The
M:2/4
L:1/8
Z:vmp. Peter Dunk 2012.from a transcription by Fynn Titford-Mock 2006
B:Thompson's Compleat Collection of 200 Favourite Country Dances Vol.I,1758
Q:1/4=140
K:F
f2 cA|FEFG|ABcd|B2A2|gedc|dBAG|AFED|C4:|
|:c2 dB|A^FGA|Bcd_e|FEFA|Bcde|fcdB|AdBG|F4:|

